floor-lamp-torchiere.svg

<svg fill="currentColor" viewBox="0 0 24 24"><path d="m7 2 3 7h4l3-7zm6 18h3v2H8v-2h3V10h2z"/></svg>

<svg  viewBox="0 0 24 24" fill="currentColor"><path  d="M7 2L10 9H14L17 2H7M13 20H16V22H8V20H11V10H13V20Z"/></svg>
